alecto/img/svg/design.svg

<svg xmlns="http://www.w3.org/2000/svg" width="32" height="32"><path d="M31.651 8.651L23.349.348a1.197 1.197 0 00-.849-.349c-.308 0-.614.115-.848.349L0 21.999v10h10l21.651-21.651c.235-.234.349-.542.349-.849a1.19 1.19 0 00-.349-.848zM4.561 21.439L18.44 7.559l6 6.001-13.879 13.879-6-6zM3 24.12l4.879 4.879H3V24.12zm23.561-12.681l-6-6 1.939-1.94 6 6-1.939 1.94z"/></svg>

<svg 
 xmlns="http://www.w3.org/2000/svg"
 xmlns:xlink="http://www.w3.org/1999/xlink"
 width="32px" height="32px">
<path
 d="M31.651,8.651 L23.349,0.348 C23.114,0.114 22.807,-0.001 22.500,-0.001 C22.192,-0.001 21.886,0.114 21.652,0.348 L0.000,21.999 L0.000,31.999 L10.000,31.999 L31.651,10.348 C31.886,10.114 32.000,9.806 32.000,9.499 C32.000,9.192 31.886,8.885 31.651,8.651 ZM4.561,21.439 L18.440,7.559 L24.440,13.560 L10.561,27.439 L4.561,21.439 ZM3.000,24.120 L7.879,28.999 L3.000,28.999 L3.000,24.120 ZM26.561,11.439 L20.561,5.439 L22.500,3.499 L28.500,9.499 L26.561,11.439 Z"/>
</svg>
